X:1
T:Firetur.
T: 20. Firetur 
T: Spilt av Jens Nielsen Aaslund (1855-1947). Jens var født i Tomter i Østfold, og vokste opp i det som i dag er kjent som Villa Sandvigen ved Gjersjøen i Oppegård. Denne fireturen er etter skogsfullmektig Tømte ved Ljan Herregård (Stubljan). Jens karakterisert turdansene slik: «Turdansene ble mest brukt på større og stivere fester og gikk av mote etterhvert» (Stranger 1981:23-24). Kilde: 14 gamle Østfold-danser. Oppnotert av Alfred Andersen-Wingar. 
C:Tömte.
L:1/8
M:3/4
K:D
V:1 treble nm="Fiolin" snm="Fio."
V:1
!p! vAG |"D" F2 (DF)Ad | f4 (ed) |"Em" c2 (Bc)eg |"A7" (b2 a2) a2 |"D" D2 (FA)df | a2 a4 | %7
 (da)(da)"A7"ca |"D" d4 ::[K:G] (uBd) |"G" g3 (dB)d | g3 (dBd) | b3 (g"D7"fa) |"G" g4 f2 | %14
"_\nBallsalen på Ljan herregård (Stubljan).\nFoto: Ukjent. Fra boka  «Hvitebjørn og Stubljan» av Haagen Krog Steffens 1898.\n""C"({ef)} e3 d e2 | %15
"G" (ud3 uG)Bd |"D7" (cB)(cA)FA |"G" G4 :| %18

